assets/medical-grey/MedicalGrey27.svg

<svg xmlns="http://www.w3.org/2000/svg" id="icons" viewBox="0 0 64 64"><defs><style>.cls-1{fill:none;stroke:#000;stroke-linecap:round;stroke-linejoin:round;stroke-width:2px}</style></defs><g id="syrange"><path d="M36.28 12.88L13.13 36.02l-2.69 17.6 17.58-2.53 23.24-23.23M10.44 53.62l-6.07 6.06M45.06 34.05l-5.47-5.47M40.5 38.61l-5.47-5.47M35.94 43.17l-5.47-5.47M31.38 47.73l-5.47-5.47M32.3 8.9l22.85 22.85M49.33 9l-8.48 8.48M46.56 23.16l8.47-8.47M44.65 4.32L59.63 19.3" class="cls-1"/></g></svg>

<svg xmlns="http://www.w3.org/2000/svg" id="icons" viewBox="0 0 64 64"><defs><style>.cls-1{fill:none;stroke:#000;stroke-linecap:round;stroke-linejoin:round;stroke-width:2px;}</style></defs><g id="syrange"><path d="M36.28 12.88 13.13 36.02 10.44 53.62 10.44 53.62 28.02 51.09 51.26 27.86" class="cls-1"/><path d="M10.44 53.62 4.37 59.68" class="cls-1"/><path d="M45.06 34.05 39.59 28.58" class="cls-1"/><path d="M40.5 38.61 35.03 33.14" class="cls-1"/><path d="M35.94 43.17 30.47 37.7" class="cls-1"/><path d="M31.38 47.73 25.91 42.26" class="cls-1"/><path d="M32.3 8.9 55.15 31.75" class="cls-1"/><path d="M49.33 9 40.85 17.48" class="cls-1"/><path d="M46.56 23.16 55.03 14.69" class="cls-1"/><path d="M44.65 4.32 59.63 19.3" class="cls-1"/></g></svg>
